X:1
T:Bach Double Concerto for Two Violins BWV 1043 - Bass
T:Bach Double Concerto for Two Violins BWV 1043 - Bass
L:1/8
Q:1/4=100
M:4/4
K:F
V:1 bass nm="Piano" snm="Pno."
V:1
 D,4 A,,4- | A,,4 G,,4- | G,,4- G,,A,, B,,2 | A,,G,,A,,A,, D,2 z2 | A,,4 E,4- | E,4 D,4- | %6
 D,4- D,E, F,2 | E,D,E,E, A,,2 z2 | z8 | D,/E,/F,/G,/ A,D ^CA,E,G, | ^F,D, C2- C=B,/A,/ B,G, | %11
 E,G,B,D, ^C,A,D,G, | F,2 E,2 D,2 z2 | A,4 D,/E,/^F,/G,/ A,D | D4 C,/D,/E,/F,/ G,C | C4 D4 | %16
 G,2 A,2 B,2 A,2 | D,4 A,/=B,/^C/D/ EA | D4 G,4- | G,G,/F,/ E,G, A,2 A,,2 | D,B,,G,,A,, D, z z2 | %21
 D, z A,, z D, z z2 | G,, z D, z G, z z2 | C z F, z B, z E, z | A, z D, z A,E,^C,A,, | %25
 D, z A,, z D, z z2 | G,, z D, z G, z z2 | C z F, z B, z E, z | A, z D, z A,E,^C,A,, | %29
 D, z z2 G,D,=B,,G,, | C, z z2 F,C,F,,A,, | B,,2 =B,,2 C,2 ^C,2 | D, z z D, E, z z E, | %33
 F, z z D, =B,, z z =B, | E, z z ^C, A,, z z A, | D, z z D C z z C, | F, z z F,, E,, z z2 | %37
 A, z E, z A,, z z2 | D, z A,, z D, z z2 | G,, z C, z F, z =B,, z | E, z A,, z E,=B,,^G,,E,, | %41
 A,, z E, z A, z z2 | D, z A,, z D, z z2 | G, z C, z F, z =B,, z | E, z A,, z E, z z2 | A,,4 E,4- | %46
 E,4 D,4- | D,4- D,=B,,C,F, | E,D,E,E, A,2 E,2 | A,,A,^G,E, A,E,/F,/ E,E,, | A,, z z2 z4 | %51
 z D^CA, DA,/B,/ A,A,, | D, z z2 z4 | z ^C A,2 z A, D,2 | G,,/A,,/B,,/C,/ D,G, ^F,D,A,,C, | %55
 =B,,G,, F,3 E,/D,/ E,C, | A,,C,_E,G,, ^F,,D,G,,E, | D,C,D,D, G,2 D,2 | G,,G,^F,D, G,D,/_E,/ D,D, | %59
 G,, z z2 z4 | z C=B,G, CG,/_A,/ G,G,, | C, z z2 z4 | F, z z F, B, z z B,/C/ | D z z D, G, z z E, | %64
 A, z z A, D z z D/_E/ | F z z F, B, z z B,/A,/ | G, z z E, F, z z D, | E, z z A, DA,D,F, | %68
 G, z z2 CG,E,C, | F, z z2 B,,2 D,2 | _E,2 =E,2 F,2 ^F,2 | G,/A,/B,/C/ B,G, A,/B,/C/D/ CA, | %72
 B,D/C/ B, z z z z E, | A,^C/B,/ A, z z z z D, | G,B,/A,/ G, z z A,/G,/ F, z | %75
 z D/C/ B, z z A,/G,/ A,^C | D z A, z D, z z2 | G,, z D, z G, z z2 | C z F, z B, z E, z | %79
 A, z D, z A,E,^C,A,, | D, z A,, z D, z z2 | G,, z D, z G, z z2 | C, z F, z B,, z E, z | %83
 A,, z D, z A, z A,,2 | D,/^C,/D,/E,/ F,/E,/F,/G,/ A,/G,/A,/B,/ A,/G,/F,/E,/ | %85
 D,/^C,/D,/E,/ D,/=C,/B,,/A,,/ G,,/^F,,/G,,/A,,/ G,,/=F,,/E,,/D,,/ | ^C,,2 z G, G,/F,/E, F,E, | %87
 D,/E,/F,/G,/ A,A,, D,4 |] %88

